src/next/cmd/lc_quickedit.svg

<svg height="24" width="24" xmlns="http://www.w3.org/2000/svg"><rect fill="#618fd2" fill-opacity=".091954" height="18.999733" rx=".033425" ry=".038252" stroke-width=".225794" width="19.999719" x="2.000014" y="2"/><g fill="#7193c6" stroke-width="1.453694" transform="matrix(.171875 0 0 .171875 1.000028 .999705)"><path d="m5.8181001 11.638005v-5.818105h5.8180999v5.818105z"/><path d="m17.417108 11.635591v-5.812362h5.848648v5.812362z"/><path d="m29.08053 11.641319v-5.8156769h5.818997v5.8156769z"/><path d="m81.416835 11.644639h-5.815677v-5.8189969h5.815677z"/><path d="m40.705857 11.638005v-5.818105h5.8181v5.818105z"/><path d="m52.304864 11.635591v-5.812362h5.848653v5.812362z"/><path d="m63.968292 11.641319v-5.8156769h5.818992v5.8156769z"/><path d="m116.362 11.638h-5.81568v-5.8189969h5.81568z"/><path d="m87.250029 11.628952v-5.812362h5.848653v5.812362z"/><path d="m98.913457 11.63468v-5.8156769h5.818993v5.8156769z"/><path d="m23.241852 116.3638v-5.81236h5.848648v5.81236z"/><path d="m34.905274 116.36953v-5.81568h5.818997v5.81568z"/><path d="m87.241579 116.37285h-5.815677v-5.819h5.815677z"/><path d="m46.530601 116.36621v-5.8181h5.8181v5.8181z"/><path d="m58.129608 116.3638v-5.81236h5.848653v5.81236z"/><path d="m69.793036 116.36953v-5.81568h5.818992v5.81568z"/><path d="m122.18674 116.36621h-5.81568v-5.819h5.81568z"/><path d="m93.074773 116.35716v-5.81236h5.848653v5.81236z"/><path d="m104.7382 116.36289v-5.81568h5.81899v5.81568z"/><path d="m11.6362 116.35806v-5.81236h5.848648v5.81236z"/><g transform="matrix(0 1 -1 0 232.72006 -5.8163)"><path d="m23.241852 116.3638v-5.81236h5.848648v5.81236z"/><path d="m34.905274 116.36953v-5.81568h5.818997v5.81568z"/><path d="m87.241579 116.37285h-5.815677v-5.819h5.815677z"/><path d="m46.530601 116.36621v-5.8181h5.8181v5.8181z"/><path d="m58.129608 116.3638v-5.81236h5.848653v5.81236z"/><path d="m69.793036 116.36953v-5.81568h5.818992v5.81568z"/><path d="m122.18674 116.36621h-5.81568v-5.819h5.81568z"/><path d="m93.074773 116.35716v-5.81236h5.848653v5.81236z"/><path d="m104.7382 116.36289v-5.81568h5.81899v5.81568z"/><path d="m11.6362 116.35806v-5.81236h5.848648v5.81236z"/></g><g transform="matrix(0 1 -1 0 122.1819 -5.785752)"><path d="m23.241852 116.3638v-5.81236h5.848648v5.81236z"/><path d="m34.905274 116.36953v-5.81568h5.818997v5.81568z"/><path d="m87.241579 116.37285h-5.815677v-5.819h5.815677z"/><path d="m46.530601 116.36621v-5.8181h5.8181v5.8181z"/><path d="m58.129608 116.3638v-5.81236h5.848653v5.81236z"/><path d="m69.793036 116.36953v-5.81568h5.818992v5.81568z"/><path d="m122.18674 116.36621h-5.81568v-5.819h5.81568z"/><path d="m93.074773 116.35716v-5.81236h5.848653v5.81236z"/><path d="m104.7382 116.36289v-5.81568h5.81899v5.81568z"/><path d="m11.6362 116.35806v-5.81236h5.848648v5.81236z"/></g></g><g fill="#232323" stroke-width=".272262" transform="matrix(.78707522 0 0 .78707522 2.247418 2.565024)"><path d="m8.5941899 8.8485869v.2069189h-2.7770692v-.2069189q.4356187-.010891.5989757-.087124.163357-.076233.163357-.2831521 0-.2613713-.2069189-.7296614l-.4465091-1.0454847h-2.8533026l-.5009615 1.2741848q-.087124.2286998-.087124.4247282 0 .4465092.7405518.4465092v.2069189h-2.1563123v-.2069189q.4029473-.021781.6207567-.3049331.2286998-.2940427.7296613-1.4811036l2.2652173-5.3472196h.2178093l2.7117265 6.1857856q.2613712.5989757.4356187.7623327.1742474.163357.5445233.185138zm-5.3363291-2.5919313h2.515698l-1.2632942-2.9948786z"/><path d="m15.19058 7.0952216q0 .326714-.119795.6425376-.119795.3158235-.402947.6316471-.272262.3049331-.816785.5009615-.544524.185138-1.295966.185138h-3.6374162v-.2069189q.675209-.021781.8603469-.1960285.185138-.1742474.185138-.7841136v-4.8353677q0-.5989757-.185138-.7623327-.1742475-.1742475-.8603469-.2178093v-.2069189h3.0493312q2.853302 0 2.853302 1.8513795 0 .3593854-.130685.6425376-.130686.2722617-.272262.4247282-.130686.1415761-.413838.2722617-.283152.1306856-.359385.1524665-.07623.01089-.315824.076233.250481.065343.370276.098014.130686.032671.4574.185138.337604.1524665.522742.326714.185138.1742475.348495.5009615.163357.3158236.163357.7187714zm-3.430497 1.5573368q.490071 0 .849456-.065343.359386-.065343.675209-.2178093.315824-.163357.479181-.4791806.174247-.3158235.174247-.7841137 0-.4465091-.174247-.7514422-.163357-.3158234-.402947-.4791804-.239591-.163357-.664319-.2504808-.424728-.0871237-.751442-.0980142-.326714-.0217809-.871238-.0217809v2.700836q0 .2613712.141576.3593854.141577.087124.544524.087124zm-.6861-3.5829638h1.034595q.762333 0 1.17617-.3376045.424729-.348495.424729-.9910326 0-.7296613-.490071-1.1108277-.490072-.3811663-1.426652-.3811663h-.47918q-.239591 0-.239591.326714z"/><path d="m16.005834 5.5161038q0-1.698913 1.045485-2.7552883 1.045485-1.0672659 2.602821-1.0672659.69699 0 1.306857.185138.609866.1742475.70788.1742475.359385 0 .4574-.3593855h.228699l.09802 2.4612457h-.250486q-.598976-2.025627-2.341451-2.025627-1.187061 0-1.894941.8821279-.69699.8821279-.69699 2.3632315 0 .9474707.23959 1.6444606.250481.6860995.664319 1.0454849.413838.348495.849456.511852.44651.1524665.947471.1524665 1.285075 0 2.428574-1.0999372l.196029.1960284q-.500962.6643185-1.274185 1.023704-.773223.3593854-1.698913.3593854-1.611789 0-2.613712-1.0128135-1.001923-1.0128135-1.001923-2.679055z"/></g></svg>

<?xml version="1.0" encoding="UTF-8" standalone="no"?>
<svg
   xmlns:dc="http://purl.org/dc/elements/1.1/"
   xmlns:cc="http://creativecommons.org/ns#"
   xmlns:rdf="http://www.w3.org/1999/02/22-rdf-syntax-ns#"
   xmlns:svg="http://www.w3.org/2000/svg"
   xmlns="http://www.w3.org/2000/svg"
   xmlns:sodipodi="http://sodipodi.sourceforge.net/DTD/sodipodi-0.dtd"
   xmlns:inkscape="http://www.inkscape.org/namespaces/inkscape"
   height="24"
   width="24"
   version="1.1"
   id="svg100"
   sodipodi:docname="lc_quickedit.svg"
   inkscape:version="0.92.4 (unknown)"
   inkscape:export-filename="/home/rizmut/Dokumen/Rizmut/Github/libreoffice-style-karasa-jaga/build/next/cmd/lc_quickedit.png"
   inkscape:export-xdpi="96"
   inkscape:export-ydpi="96">
  <metadata
     id="metadata106">
    <rdf:RDF>
      <cc:Work
         rdf:about="">
        <dc:format>image/svg+xml</dc:format>
        <dc:type
           rdf:resource="http://purl.org/dc/dcmitype/StillImage" />
      </cc:Work>
    </rdf:RDF>
  </metadata>
  <defs
     id="defs104" />
  <sodipodi:namedview
     pagecolor="#ffffff"
     bordercolor="#666666"
     borderopacity="1"
     objecttolerance="10"
     gridtolerance="10"
     guidetolerance="10"
     inkscape:pageopacity="0"
     inkscape:pageshadow="2"
     inkscape:window-width="1366"
     inkscape:window-height="714"
     id="namedview102"
     showgrid="true"
     inkscape:zoom="19.666667"
     inkscape:cx="13.620608"
     inkscape:cy="19.15585"
     inkscape:window-x="0"
     inkscape:window-y="28"
     inkscape:window-maximized="1"
     inkscape:current-layer="svg100"
     inkscape:snap-global="false">
    <inkscape:grid
       type="xygrid"
       id="grid108" />
  </sodipodi:namedview>
  <g
     transform="matrix(0.171875,0,0,0.171875,1.0000281,0.99970469)"
     id="g98">
    <rect
       height="110.5439"
       rx="0.194473"
       ry="0.22255699"
       width="116.362"
       x="5.8181"
       y="5.8199"
       id="rect2"
       style="fill:#618fd2;fill-opacity:0.09195401;stroke-width:1.313712" />
    <g
       id="g10"
       style="fill:#232323;stroke-width:1.20735598" />
    <g
       id="g96"
       style="fill:#7193c6;stroke-width:1.45369399">
      <path
         d="M 5.8181001,11.638005 V 5.8199 H 11.6362 v 5.818105 z"
         id="path12"
         inkscape:connector-curvature="0" />
      <path
         d="M 17.417108,11.635591 V 5.823229 h 5.848648 v 5.812362 z"
         id="path14"
         inkscape:connector-curvature="0" />
      <path
         d="M 29.08053,11.641319 V 5.8256421 h 5.818997 v 5.8156769 z"
         id="path16"
         inkscape:connector-curvature="0" />
      <path
         d="M 81.416835,11.644639 H 75.601158 V 5.8256421 h 5.815677 z"
         id="path18"
         inkscape:connector-curvature="0" />
      <path
         d="M 40.705857,11.638005 V 5.8199 h 5.8181 v 5.818105 z"
         id="path20"
         inkscape:connector-curvature="0" />
      <path
         d="M 52.304864,11.635591 V 5.823229 h 5.848653 v 5.812362 z"
         id="path22"
         inkscape:connector-curvature="0" />
      <path
         d="M 63.968292,11.641319 V 5.8256421 h 5.818992 v 5.8156769 z"
         id="path24"
         inkscape:connector-curvature="0" />
      <path
         d="m 116.362,11.638 h -5.81568 V 5.8190031 h 5.81568 z"
         id="path26"
         inkscape:connector-curvature="0" />
      <path
         d="M 87.250029,11.628952 V 5.81659 h 5.848653 v 5.812362 z"
         id="path28"
         inkscape:connector-curvature="0" />
      <path
         d="M 98.913457,11.63468 V 5.8190031 h 5.818993 V 11.63468 Z"
         id="path30"
         inkscape:connector-curvature="0" />
      <path
         d="m 23.241852,116.3638 v -5.81236 H 29.0905 v 5.81236 z"
         id="path32"
         inkscape:connector-curvature="0" />
      <path
         d="m 34.905274,116.36953 v -5.81568 h 5.818997 v 5.81568 z"
         id="path34"
         inkscape:connector-curvature="0" />
      <path
         d="m 87.241579,116.37285 h -5.815677 v -5.819 h 5.815677 z"
         id="path36"
         inkscape:connector-curvature="0" />
      <path
         d="m 46.530601,116.36621 v -5.8181 h 5.8181 v 5.8181 z"
         id="path38"
         inkscape:connector-curvature="0" />
      <path
         d="m 58.129608,116.3638 v -5.81236 h 5.848653 v 5.81236 z"
         id="path40"
         inkscape:connector-curvature="0" />
      <path
         d="m 69.793036,116.36953 v -5.81568 h 5.818992 v 5.81568 z"
         id="path42"
         inkscape:connector-curvature="0" />
      <path
         d="m 122.18674,116.36621 h -5.81568 v -5.819 h 5.81568 z"
         id="path44"
         inkscape:connector-curvature="0" />
      <path
         d="m 93.074773,116.35716 v -5.81236 h 5.848653 v 5.81236 z"
         id="path46"
         inkscape:connector-curvature="0" />
      <path
         d="m 104.7382,116.36289 v -5.81568 h 5.81899 v 5.81568 z"
         id="path48"
         inkscape:connector-curvature="0" />
      <path
         d="m 11.6362,116.35806 v -5.81236 h 5.848648 v 5.81236 z"
         id="path50"
         inkscape:connector-curvature="0" />
      <g
         transform="rotate(90,119.26818,113.45188)"
         id="g72">
        <path
           d="m 23.241852,116.3638 v -5.81236 H 29.0905 v 5.81236 z"
           id="path52"
           inkscape:connector-curvature="0" />
        <path
           d="m 34.905274,116.36953 v -5.81568 h 5.818997 v 5.81568 z"
           id="path54"
           inkscape:connector-curvature="0" />
        <path
           d="m 87.241579,116.37285 h -5.815677 v -5.819 h 5.815677 z"
           id="path56"
           inkscape:connector-curvature="0" />
        <path
           d="m 46.530601,116.36621 v -5.8181 h 5.8181 v 5.8181 z"
           id="path58"
           inkscape:connector-curvature="0" />
        <path
           d="m 58.129608,116.3638 v -5.81236 h 5.848653 v 5.81236 z"
           id="path60"
           inkscape:connector-curvature="0" />
        <path
           d="m 69.793036,116.36953 v -5.81568 h 5.818992 v 5.81568 z"
           id="path62"
           inkscape:connector-curvature="0" />
        <path
           d="m 122.18674,116.36621 h -5.81568 v -5.819 h 5.81568 z"
           id="path64"
           inkscape:connector-curvature="0" />
        <path
           d="m 93.074773,116.35716 v -5.81236 h 5.848653 v 5.81236 z"
           id="path66"
           inkscape:connector-curvature="0" />
        <path
           d="m 104.7382,116.36289 v -5.81568 h 5.81899 v 5.81568 z"
           id="path68"
           inkscape:connector-curvature="0" />
        <path
           d="m 11.6362,116.35806 v -5.81236 h 5.848648 v 5.81236 z"
           id="path70"
           inkscape:connector-curvature="0" />
      </g>
      <g
         transform="rotate(90,63.983826,58.198074)"
         id="g94">
        <path
           d="m 23.241852,116.3638 v -5.81236 H 29.0905 v 5.81236 z"
           id="path74"
           inkscape:connector-curvature="0" />
        <path
           d="m 34.905274,116.36953 v -5.81568 h 5.818997 v 5.81568 z"
           id="path76"
           inkscape:connector-curvature="0" />
        <path
           d="m 87.241579,116.37285 h -5.815677 v -5.819 h 5.815677 z"
           id="path78"
           inkscape:connector-curvature="0" />
        <path
           d="m 46.530601,116.36621 v -5.8181 h 5.8181 v 5.8181 z"
           id="path80"
           inkscape:connector-curvature="0" />
        <path
           d="m 58.129608,116.3638 v -5.81236 h 5.848653 v 5.81236 z"
           id="path82"
           inkscape:connector-curvature="0" />
        <path
           d="m 69.793036,116.36953 v -5.81568 h 5.818992 v 5.81568 z"
           id="path84"
           inkscape:connector-curvature="0" />
        <path
           d="m 122.18674,116.36621 h -5.81568 v -5.819 h 5.81568 z"
           id="path86"
           inkscape:connector-curvature="0" />
        <path
           d="m 93.074773,116.35716 v -5.81236 h 5.848653 v 5.81236 z"
           id="path88"
           inkscape:connector-curvature="0" />
        <path
           d="m 104.7382,116.36289 v -5.81568 h 5.81899 v 5.81568 z"
           id="path90"
           inkscape:connector-curvature="0" />
        <path
           d="m 11.6362,116.35806 v -5.81236 h 5.848648 v 5.81236 z"
           id="path92"
           inkscape:connector-curvature="0" />
      </g>
    </g>
  </g>
  <g
     style="fill:#232323;fill-opacity:1;stroke-width:0.27226201"
     id="g74"
     transform="matrix(0.78707522,0,0,0.78707522,2.2474175,2.5650237)">
    <path
       inkscape:connector-curvature="0"
       d="M 8.5941899,8.8485869 V 9.0555058 H 5.8171207 V 8.8485869 q 0.4356187,-0.010891 0.5989757,-0.087124 0.163357,-0.076233 0.163357,-0.2831521 0,-0.2613713 -0.2069189,-0.7296614 L 5.9260254,6.7031647 H 3.0727228 L 2.5717613,7.9773495 q -0.087124,0.2286998 -0.087124,0.4247282 0,0.4465092 0.7405518,0.4465092 V 9.0555058 H 1.0688768 V 8.8485869 Q 1.4718241,8.8268059 1.6896335,8.5436538 1.9183333,8.2496111 2.4192948,7.0625502 L 4.6845121,1.7153306 h 0.2178093 l 2.7117265,6.1857856 q 0.2613712,0.5989757 0.4356187,0.7623327 0.1742474,0.163357 0.5445233,0.185138 z M 3.2578608,6.2566556 h 2.515698 L 4.5102646,3.261777 Z"
       id="path68-3"
       style="fill:#232323;fill-opacity:1" />
    <path
       inkscape:connector-curvature="0"
       d="m 15.19058,7.0952216 q 0,0.326714 -0.119795,0.6425376 -0.119795,0.3158235 -0.402947,0.6316471 -0.272262,0.3049331 -0.816785,0.5009615 -0.544524,0.185138 -1.295966,0.185138 H 8.9176708 V 8.8485869 Q 9.5928798,8.8268059 9.7780177,8.6525584 9.9631557,8.478311 9.9631557,7.8684448 V 3.0330771 q 0,-0.5989757 -0.185138,-0.7623327 Q 9.6037702,2.0964969 8.9176708,2.0529351 V 1.8460162 h 3.0493312 q 2.853302,0 2.853302,1.8513795 0,0.3593854 -0.130685,0.6425376 -0.130686,0.2722617 -0.272262,0.4247282 -0.130686,0.1415761 -0.413838,0.2722617 -0.283152,0.1306856 -0.359385,0.1524665 -0.07623,0.01089 -0.315824,0.076233 0.250481,0.065343 0.370276,0.098014 0.130686,0.032671 0.4574,0.185138 0.337604,0.1524665 0.522742,0.326714 0.185138,0.1742475 0.348495,0.5009615 0.163357,0.3158236 0.163357,0.7187714 z m -3.430497,1.5573368 q 0.490071,0 0.849456,-0.065343 0.359386,-0.065343 0.675209,-0.2178093 0.315824,-0.163357 0.479181,-0.4791806 0.174247,-0.3158235 0.174247,-0.7841137 0,-0.4465091 -0.174247,-0.7514422 Q 13.600572,6.0388462 13.360982,5.8754892 13.121391,5.7121322 12.696663,5.6250084 12.271935,5.5378847 11.945221,5.5269942 11.618507,5.5052133 11.073983,5.5052133 v 2.700836 q 0,0.2613712 0.141576,0.3593854 0.141577,0.087124 0.544524,0.087124 z m -0.6861,-3.5829638 h 1.034595 q 0.762333,0 1.17617,-0.3376045 0.424729,-0.348495 0.424729,-0.9910326 0,-0.7296613 -0.490071,-1.1108277 -0.490072,-0.3811663 -1.426652,-0.3811663 h -0.47918 q -0.239591,0 -0.239591,0.326714 z"
       id="path70-6"
       style="fill:#232323;fill-opacity:1" />
    <path
       inkscape:connector-curvature="0"
       d="m 16.005834,5.5161038 q 0,-1.698913 1.045485,-2.7552883 1.045485,-1.0672659 2.602821,-1.0672659 0.69699,0 1.306857,0.185138 0.609866,0.1742475 0.70788,0.1742475 0.359385,0 0.4574,-0.3593855 h 0.228699 l 0.09802,2.4612457 H 22.20251 q -0.598976,-2.025627 -2.341451,-2.025627 -1.187061,0 -1.894941,0.8821279 -0.69699,0.8821279 -0.69699,2.3632315 0,0.9474707 0.23959,1.6444606 0.250481,0.6860995 0.664319,1.0454849 0.413838,0.348495 0.849456,0.511852 0.44651,0.1524665 0.947471,0.1524665 1.285075,0 2.428574,-1.0999372 l 0.196029,0.1960284 q -0.500962,0.6643185 -1.274185,1.023704 -0.773223,0.3593854 -1.698913,0.3593854 -1.611789,0 -2.613712,-1.0128135 -1.001923,-1.0128135 -1.001923,-2.679055 z"
       id="path72"
       style="fill:#232323;fill-opacity:1" />
  </g>
</svg>
